!!!!SEGMENT: pl-cz--i-80_kasprzykowski-ignacy--graduale-in-f.krn
!!!cenid: 18xx:172
!!!COM: Kasprzykowski, Ignacy
!!!COM-rismid: pe30098316
!!!CDT: -1752/02/17
!!!CNT:
!!!OTL: Graduale in F
!!!PDT:
!!!AGN: Sacred
!!!SMS-siglum: PL-CZ
!!!SMS-shelfmark: I-80
!!!SMS-shelfwork: W
!!!NIFC-rismid:
!!!URL-scan: http://repozytorium.nifc.pl/skany/pl-cz-nut--i-80
!!!ONB-nifc:
!!!OMD: Maestuozo
!!!key:
**kern	**dynam	**kern	**dynam	**kern	**dynam	**kern	**dynam	**kern	**text	**kern	**text	**dynam	**kern	**text	**dynam	**kern	**text	**dynam	**kern	**dynam
*part9	*part9	*part8	*part8	*part7	*part7	*part6	*part6	*part5	*part5	*part4	*part4	*part4	*part3	*part3	*part3	*part2	*part2	*part2	*part1	*part1
*staff9	*	*staff8	*	*staff7	*	*staff6	*	*staff5	*staff5	*staff4	*staff4	*	*staff3	*staff3	*	*staff2	*staff2	*	*staff1	*
*Icello	*	*Iviola	*	*Ivioln	*	*Ivioln	*	*Iempty	*	*Itenor	*	*	*Ialto	*	*	*Isoprn	*	*	*Iflt	*
*I"Violon. Zello	*	*I"Alto Viola	*	*I"Violino 2do	*	*I"Violino 1mo	*	*I"Barison	*	*I"Tenori	*	*	*I"Alto	*	*	*I"Soprano	*	*	*I"Flauto Oblig	*
*I'Vc	*	*I'Vla	*	*I'Vn II	*	*I'Vn I	*	*I'B	*	*I'T	*	*	*I'A	*	*	*I'S	*	*	*I'Fl	*
*clefF4	*	*clefC3	*	*clefG2	*	*clefG2	*	*clefF4	*	*clefGv2	*	*	*clefG2	*	*	*clefG2	*	*	*clefG2	*
*k[b-]	*	*k[b-]	*	*k[b-]	*	*k[b-]	*	*k[b-]	*	*k[b-]	*	*	*k[b-]	*	*	*k[b-]	*	*	*k[b-]	*
*F:	*	*F:	*	*F:	*	*F:	*	*F:	*	*F:	*	*	*F:	*	*	*F:	*	*	*F:	*
*M3/4	*	*M3/4	*	*M3/4	*	*M3/4	*	*M3/4	*	*M3/4	*	*	*M3/4	*	*	*M3/4	*	*	*M3/4	*
=1	=1	=1	=1	=1	=1	=1	=1	=1	=1	=1	=1	=1	=1	=1	=1	=1	=1	=1	=1	=1
!LO:TX:a:t=P: wszystkie nuty mają laseczkę po prawej stronie:problem	!	!LO:TX:a:t=P: wszystkie nuty mają laseczkę po prawej stronie:problem	!	!LO:TX:a:t=P: wszystkie nuty mają laseczkę po prawej stronie:problem	!	!	!	!	!	!	!	!	!	!	!	!	!	!	!	!
!LO:TX:a:t=Maestuoso	!	!LO:TX:a:t=Maestuoso	!	!LO:TX:a:t=Maestuoso	!	!LO:TX:a:t=Maestuoso	!	!LO:TX:a:t=P: wszystkie nuty mają laseczkę po prawej stronie:problem	!	!LO:TX:a:t=P: wszystkie nuty mają laseczkę po prawej stronie:problem	!	!	!LO:TX:a:t=P: wszystkie nuty mają laseczkę po prawej stronie:problem	!	!	!LO:TX:a:t=P: wszystkie nuty mają laseczkę po prawej stronie:problem	!	!	!LO:TX:a:t=P: wszystkie nuty mają laseczkę po prawej stronie:problem	!
!LO:TX:a:t= Pizi:	!	!LO:TX:a:t=pizi.	!	!LO:TX:a:t=pizi.	!	!LO:TX:a:t=pizica:	!	!LO:TX:a:t=Maiestuso	!	!LO:TX:a:t=Maestuoso	!	!	!LO:TX:a:t=Maestuoso	!	!	!LO:TX:a:t=Maestuoso	!	!	!LO:TX:a:t=Maestuoso	!
!	!	!	!	!	!	!	!	!	!	!LO:TX:t=przy kluczu brak przenośnika oktawowego	!	!	!	!	!	!	!	!	!	!
4F\	.	4A/	.	4c/	.	4f/	.	2.r	.	2.r	.	.	2.r	.	.	2.r	.	.	2.r	.
4r	.	4r	.	4r	.	4a/	.	.	.	.	.	.	.	.	.	.	.	.	.	.
4r	.	4r	.	4r	.	4cc/	.	.	.	.	.	.	.	.	.	.	.	.	.	.
=2	=2	=2	=2	=2	=2	=2	=2	=2	=2	=2	=2	=2	=2	=2	=2	=2	=2	=2	=2	=2
4F\	.	4A/	.	4c/	.	4f/	.	2.r	.	2.r	.	.	2.r	.	.	2.r	.	.	2.r	.
4r	.	4r	.	4r	.	4a/	.	.	.	.	.	.	.	.	.	.	.	.	.	.
4r	.	4r	.	4r	.	4cc/	.	.	.	.	.	.	.	.	.	.	.	.	.	.
=3	=3	=3	=3	=3	=3	=3	=3	=3	=3	=3	=3	=3	=3	=3	=3	=3	=3	=3	=3	=3
4F\	.	4A/	.	4c/	.	4f/	.	2.r	.	2.r	.	.	2.r	.	.	2.r	.	.	2.r	.
4r	.	4r	.	4r	.	4a/	.	.	.	.	.	.	.	.	.	.	.	.	.	.
4r	.	4r	.	4r	.	4cc/	.	.	.	.	.	.	.	.	.	.	.	.	.	.
=4	=4	=4	=4	=4	=4	=4	=4	=4	=4	=4	=4	=4	=4	=4	=4	=4	=4	=4	=4	=4
4F\	.	4A/	.	4c/	.	4f/	.	2.r	.	2.r	.	.	2.r	.	.	2.r	.	.	2.r	.
4r	.	4r	.	4r	.	4a/	.	.	.	.	.	.	.	.	.	.	.	.	.	.
4r	.	4r	.	4r	.	4cc/	.	.	.	.	.	.	.	.	.	.	.	.	.	.
=5	=5	=5	=5	=5	=5	=5	=5	=5	=5	=5	=5	=5	=5	=5	=5	=5	=5	=5	=5	=5
!LO:TX:a:t=P:problem: powtórka tt. 5-9 oznaczona znakiem ÷:problem	!	!LO:TX:a:t=P: powtórka tt. 5-9 oznaczona znakiem ÷ :problem	!	!LO:TX:a:t=P: powtórka tt. 5-9 oznaczona znakiem ÷ :problem	!	!	!	!	!	!	!	!	!	!	!	!LO:TX:a:t=Solo	!	!	!	!
4F\	.	4A/	.	4c/	.	4f/	.	2.F\	Chwal-	2.r	.	.	2.a/	Chwal-	.	2.cc\	Chwal-	.	2.r	.
4r	.	4r	.	4r	.	4a/	.	.	.	.	.	.	.	.	.	.	.	.	.	.
4r	.	4r	.	4r	.	4cc/	.	.	.	.	.	.	.	.	.	.	.	.	.	.
=6	=6	=6	=6	=6	=6	=6	=6	=6	=6	=6	=6	=6	=6	=6	=6	=6	=6	=6	=6	=6
4F\	.	4A/	.	4c/	.	4f/	.	2F\	-cie	2.r	.	.	2f/	-cie	.	2a\	-cie	.	2.r	.
4r	.	4r	.	4r	.	4a/	.	.	.	.	.	.	.	.	.	.	.	.	.	.
4r	.	4r	.	4r	.	4cc/	.	4F\	o	.	.	.	4a/	o	.	4cc\	o	.	.	.
=7	=7	=7	=7	=7	=7	=7	=7	=7	=7	=7	=7	=7	=7	=7	=7	=7	=7	=7	=7	=7
4F\	.	4A/	.	4c/	.	4f/	.	(>4C\	dzia-	2.c\	Dzia-	.	2.a/	dzia-	.	2.ff\	dzia-	.	2.r	.
4r	.	4r	.	4r	.	4a/	.	4D\	.	.	.	.	.	.	.	.	.	.	.	.
4r	.	4r	.	4r	.	4cc/	.	4E\)	.	.	.	.	.	.	.	.	.	.	.	.
=8	=8	=8	=8	=8	=8	=8	=8	=8	=8	=8	=8	=8	=8	=8	=8	=8	=8	=8	=8	=8
!	!	!	!	!	!	!LO:PB:g=original	!	!	!	!	!	!	!	!	!	!	!	!	!	!
4F\	.	4A/	.	4c/	.	4f/	.	2F\	-tki,-	2.c\	-tki,	.	2a/	-tki	.	2cc\	-tki	.	2.r	.
4r	.	4r	.	4r	.	4a/	.	.	.	.	.	.	.	.	.	.	.	.	.	.
4r	.	4r	.	4r	.	4cc\	.	4r	.	.	.	.	4r	.	.	4r	.	.	.	.
=9	=9	=9	=9	=9	=9	=9	=9	=9	=9	=9	=9	=9	=9	=9	=9	=9	=9	=9	=9	=9
!	!	!	!	!	!	!	!	!	!	!	!	!	!LO:TX:a:t=Solo	!	!	!	!	!	!	!
4F\	.	4A/	.	4c/	.	4f/	.	2.r	.	2.r	.	.	(<4f/	Naj-	.	(>4a\	Naj-	.	2.r	.
4r	.	4r	.	4r	.	4r	.	.	.	.	.	.	4g/)	.	.	4b-\)	.	.	.	.
4r	.	4r	.	4r	.	4r	.	.	.	.	.	.	4a/	-wysz-	.	4cc\	-wysz-	.	.	.
=10	=10	=10	=10	=10	=10	=10	=10	=10	=10	=10	=10	=10	=10	=10	=10	=10	=10	=10	=10	=10
2.r	.	2.r	.	2.r	.	2.r	.	2.r	.	(<4F/	sze-	.	2b-\	-sze-	.	(>4dd\	-sze-	.	2.r	.
.	.	.	.	.	.	.	.	.	.	4G/)	.	.	.	.	.	4ee\)	.	.	.	.
.	.	.	.	.	.	.	.	.	.	4A/	-go	.	4a\	-go	.	4ff\	-go	.	.	.
=11	=11	=11	=11	=11	=11	=11	=11	=11	=11	=11	=11	=11	=11	=11	=11	=11	=11	=11	=11	=11
!LO:PB:g=original	!	!LO:PB:g=original	!	!LO:PB:g=original	!	!	!	!	!	!	!	!	!	!	!	!	!	!	!	!
!	!	!LO:TX:a:t=problem: tremolando	!	!	!	!	!	!	!	!	!	!	!	!	!	!	!	!	!	!
!LO:TX:a:t=arco	!	!LO:TX:a:t=arco	!	!LO:TX:a:t=arco.	!	!LO:TX:a:t=arco	!	!	!	!	!	!	!	!	!	!	!	!	!	!
*	*	*	*	*	*	*	*	*	*	*^	*	*	*	*	*	*	*	*	*	*
*	*	*tremolo	*	*	*	*	*	*	*	*	*	*	*	*	*	*	*	*	*	*	*
!	!	!LO:TX:t=Arco	!	!	!	!	!	!	!	!	!	!	!	!	!	!	!	!	!	!	!
2.C/	.	(<8A/L	.	2.f/	.	4.a/	.	2.C/	-Pa-	2.c/	2.A\	Pa-	.	2.f/	Pa-	.	4.a/	Pa-	.	(>8cc\L	.
.	.	8c\	.	.	.	.	.	.	.	.	.	.	.	.	.	.	.	.	.	8ff\	.
.	.	8A/	.	.	.	.	.	.	.	.	.	.	.	.	.	.	.	.	.	8aa\	.
!	!	!	!	!	!	!	!LO:HP:b	!	!	!	!	!	!	!	!	!	!	!	!	!	!
!	!	!LO:N:vis=2.	!	!	!	!	!	!	!	!	!	!	!	!	!	!	!	!	!	!	!
.	.	8c\)	.	.	.	8g/L	<	.	.	.	.	.	.	.	.	.	8g/L	.	.	8cc\	.
.	.	8A/	.	.	.	8b-\	.	.	.	.	.	.	.	.	.	.	8b-\	.	.	8ff\	.
.	.	8c\J	.	.	.	8a/J	[[	.	.	.	.	.	.	.	.	.	8a/J	.	.	8aa\J)	.
*	*	*Xtremolo	*	*	*	*	*	*	*	*	*	*	*	*	*	*	*	*	*	*	*
!	!	!	!	!	!	!	!LO:HP:b	!	!	!	!	!	!	!	!	!	!	!	!	!	!
.	.	.	.	.	.	.	>	.	.	.	.	.	.	.	.	.	.	.	.	.	.
=12	=12	=12	=12	=12	=12	=12	=12	=12	=12	=12	=12	=12	=12	=12	=12	=12	=12	=12	=12	=12	=12
!	!	!	!	!	!	!	!	!	!	!	!	!	!	!	!	!	!LO:PB:g=original	!	!	!	!
4C/	.	4G/	.	4e/	.	4g/	]	(>4C\	-na	2c/	2G\	-na,	.	2e/	-na	.	2g/	-na	.	2ccc\	.
4r	.	4r	.	4r	.	4r	[	4D\	.	.	.	.	.	.	.	.	.	.	.	.	.
4r	.	4r	.	4r	.	4r	.	4E\)	.	4r	4rCyy	.	.	4r	.	.	4r	.	.	4r	.
=13	=13	=13	=13	=13	=13	=13	=13	=13	=13	=13	=13	=13	=13	=13	=13	=13	=13	=13	=13	=13	=13
!	!	!	!	!	!	!	!LO:DY:b	!	!	!	!	!	!	!	!	!	!	!	!	!	!
2.r	.	2.r	.	2.r	.	4f/	p	2.F\	Niech	2.f/	(>4c\	niech	.	2.a/	Niech	.	2.cc\	niech	.	2.ccc\	p
!	!	!	!	!	!	!	!LO:HP:b:t=cres.	!	!	!	!	!	!	!	!	!	!	!	!	!	!
.	.	.	.	.	.	4a/	<	.	.	.	4A\	.	.	.	.	.	.	.	.	.	.
.	.	.	.	.	.	4cc/	.	.	.	.	4c\)	.	.	.	.	.	.	.	.	.	.
*	*	*	*	*	*	*	*	*	*	*v	*v	*	*	*	*	*	*	*	*	*	*
=14	=14	=14	=14	=14	=14	=14	=14	=14	=14	=14	=14	=14	=14	=14	=14	=14	=14	=14	=14	=14
!	!	!	!	!	!	!	!	!	!	!	!	!	!LO:PB:g=original	!	!	!	!	!	!	!
!LO:TX:t=P:forte zapisane jako "for":problem	!LO:DY:b	!	!	!	!LO:HP:b	!	!	!	!	!	!	!	!	!	!LO:DY:a	!	!	!	!	!
2.F\	f	2.d\	.	2g#X/	<	4g#X/	.	2D\	Mu	2d\	mu	.	2g#X/	Mu	<	2bn\	mu	.	2bbn\	.
.	LO:HP:b	.	.	.	.	.	.	.	.	.	.	.	.	.	.	.	.	.	.	.
.	<	.	.	.	.	4bn/	.	.	.	.	.	.	.	.	.	.	.	.	.	.
.	.	.	.	4bn\	[[	4dd\	.	4D\	ied-	4d\	ied-	.	4b-\	ied-	[[	4dd\	ied-	.	4ddd\	.
=15	=15	=15	=15	=15	=15	=15	=15	=15	=15	=15	=15	=15	=15	=15	=15	=15	=15	=15	=15	=15
!	!	!	!	!	!	!	!	!LO:PB:g=original	!	!	!LO:PB:g=original	!	!	!	!	!	!	!	!	!
*	*	*	*	*	*	*	*	*	*	*^	*	*	*	*	*	*	*	*	*	*
!	!	!	!	!LO:TX:t=P:forte oznaczone jako "for":problem	!LO:TX:t=P:forte oznaczone jako "for":problem	!LO:TX:t=P:forte zapisane jako for:problem	!	!	!	!	!	!	!	!LO:TX:t=P:forte zapisane jako :fo":problem	!	!	!	!	!	!	!
!	!	!	!	!	!LO:DY:b	!	!LO:DY:b	!	!	!	!	!	!	!	!	!	!	!	!	!	!
.	[[	.	.	.	.	.	.	.	.	.	.	.	.	.	.	.	.	.	.	.	.
!	!	!	!	!	!	!	!	!	!	!	!	!	!	!	!	!	!	!	!	!LO:TX:t=Solo	!
2GG/; 2G/	.	2G/; 2d/	.	2d/; 2bn/	f	2dd\; 2ff\	[f	4G\;	-ne	2g/;	2d\	-ne-	.	2.b-\;	-ne-	f	4.ff\;	-ne-	.	4.fff\;<	.
.	.	.	.	.	.	.	.	4r	.	.	.	.	.	.	.	.	.	.	.	.	.
.	.	.	.	.	.	.	.	.	.	.	.	.	.	.	.	.	8r	.	.	(>8eee\L	.
4r	[	4r	.	4r	.	4r	.	4r	.	4r	4rCyy	.	.	.	.	.	4r	.	.	8ggg\	.
.	.	.	.	.	.	.	.	.	.	.	.	.	.	.	.	.	.	.	.	8fff\J	.
*	*	*	*	*	*	*	*	*	*	*v	*v	*	*	*	*	*	*	*	*	*	*
=16	=16	=16	=16	=16	=16	=16	=16	=16	=16	=16	=16	=16	=16	=16	=16	=16	=16	=16	=16	=16
!LO:TX:a:t=Zello	!	!	!	!	!	!	!	!LO:TX:a:t=Solo	!	!	!	!	!	!	!	!	!	!	!	!
[2.CC/	.	2.r	.	2.r	.	2.r	.	4C/	Cześc	2.r	.	.	2.r	.	.	2.r	.	.	8eee\L	.
.	.	.	.	.	.	.	.	.	.	.	.	.	.	.	.	.	.	.	8ddd\	.
.	.	.	.	.	.	.	.	4C/	bę-	.	.	.	.	.	.	.	.	.	8ccc\	.
.	.	.	.	.	.	.	.	.	.	.	.	.	.	.	.	.	.	.	8bbn\	.
.	.	.	.	.	.	.	.	4C/	-dzie	.	.	.	.	.	.	.	.	.	8aa\	.
.	.	.	.	.	.	.	.	.	.	.	.	.	.	.	.	.	.	.	8bbn\J)	.
=17	=17	=17	=17	=17	=17	=17	=17	=17	=17	=17	=17	=17	=17	=17	=17	=17	=17	=17	=17	=17
!LO:TX:a:t=P:problem: takt dopisany po korekcie (prawdopodobnie tej samej ręki):problem	!	!	!	!	!	!	!	!	!	!	!	!	!	!	!	!	!	!	!	!
!	!	!	!	!	!	!LO:PB:g=original	!	!	!	!	!	!	!	!	!	!	!	!	!	!
*	*	*	*	*	*	*	*	*	*	*^	*	*	*	*	*	*	*	*	*	*
!	!	!	!	!	!	!	!	!	!	!	!	!	!	!	!	!	!	!	!	!LO:PB:g=original	!
2.CC/_	.	2G/	.	2e/	.	2cc\	.	4C/	spie-	2e/	2c\	-mu	.	2g/	-mu	.	2cc\	-mu	.	2ccc\	.
.	.	.	.	.	.	.	.	4C/	-wa-	.	.	.	.	.	.	.	.	.	.	.	.
.	.	4r	.	4r	.	4r	.	4C/	-na	4r	4rCyy	.	.	4r	.	.	4r	.	.	4r	.
*	*	*	*	*	*	*	*	*	*	*v	*v	*	*	*	*	*	*	*	*	*	*
=18	=18	=18	=18	=18	=18	=18	=18	=18	=18	=18	=18	=18	=18	=18	=18	=18	=18	=18	=18	=18
!	!LO:DY:b	!	!	!	!	!	!	!	!	!	!	!	!	!	!	!	!	!	!	!
2.CC/]	p	2.r	.	2.r	.	2.r	.	4C/	Czesc	2.r	.	.	2.r	.	.	2.r	.	.	2.r	.
.	.	.	.	.	.	.	.	4C/	bę-	.	.	.	.	.	.	.	.	.	.	.
.	.	.	.	.	.	.	.	4C/	-dzie	.	.	.	.	.	.	.	.	.	.	.
=19	=19	=19	=19	=19	=19	=19	=19	=19	=19	=19	=19	=19	=19	=19	=19	=19	=19	=19	=19	=19
!	!LO:DY:b	!	!	!	!	!	!	!LO:SIC:v=o: brak taktu, korekta: na końcu rkp takt dodany z adnotacją	!	!	!	!	!LO:TX:a:t=Solo	!	!	!LO:TX:a:t=Solo	!	!	!	!
[2.CC/	pp	2.r	.	2.r	.	2.r	.	4C/	spie-	4c\	Cześc	.	(<4g/	Cześc	.	4b-\	Cześc	.	2.r	.
.	.	.	.	.	.	.	.	4C/	-wa-	4c\	bę-	.	4a/)	bę-	.	4cc\	bę-	.	.	.
.	.	.	.	.	.	.	.	4C/	-na	4c\	-dzie	.	4g/	-dzie	.	4b-\	-dzie	.	.	.
=20	=20	=20	=20	=20	=20	=20	=20	=20	=20	=20	=20	=20	=20	=20	=20	=20	=20	=20	=20	=20
!	!	!	!	!	!	!	!	!	!	!	!	!	!	!	!	!LO:PB:g=original	!	!	!	!
2CC/]	.	2.r	.	2.r	.	2.r	.	2C/	spie-	2c\	spie-	.	(<4f/	spie-	.	(>4a\	spie-	.	2.r	.
.	.	.	.	.	.	.	.	.	.	.	.	.	4g/)	.	.	4b-\)	.	.	.	.
4CC/	[[	.	.	.	.	.	.	4C/	-wa-	4c\	-wa-	[[	4f/	-wa-	.	4a\	-wa-	[[	.	.
=21	=21	=21	=21	=21	=21	=21	=21	=21	=21	=21	=21	=21	=21	=21	=21	=21	=21	=21	=21	=21
2CC/;	[	2.r;	.	2.r;	.	2.r;	.	2.C/;	-na.	2c\^;	-na.	<	2e/;	-na.	.	2g/;	-na.	<	2.r;	.
.	.	.	.	.	.	.	.	.	.	.	.	[	.	.	.	.	.	.	.	.
.	.	.	.	.	.	.	.	.	.	.	.	.	.	.	.	.	.	[	.	.
4r	[	.	.	.	.	.	.	.	.	4r	.	.	4r	.	.	4r	.	.	.	.
=22	=22	=22	=22	=22	=22	=22	=22	=22	=22	=22	=22	=22	=22	=22	=22	=22	=22	=22	=22	=22
!	!	!	!	!	!	!	!	!	!	!	!	!	!LO:PB:g=original	!	!	!	!	!	!	!
!	!	!	!	!	!	!	!	!	!	!	!	!	!LO:TX:a:t=Solo	!	!	!	!	!	!	!
2.r	.	2.r	.	2.r	.	2.r	.	2.r	.	2.r	.	.	(<4a/	Je-	.	(>4cc\	Je-	.	2.r	.
!	!	!	!	!	!	!	!	!	!	!	!	!	!	!	!	!	!	!LO:HP:b	!	!
.	.	.	.	.	.	.	.	.	.	.	.	.	4b-\)	.	.	4dd\)	.	<	.	.
.	.	.	.	.	.	.	.	.	.	.	.	.	.	.	.	.	.	[[	.	.
.	.	.	.	.	.	.	.	.	.	.	.	.	4g/	-go	.	4ee\	-go	.	.	.
=23	=23	=23	=23	=23	=23	=23	=23	=23	=23	=23	=23	=23	=23	=23	=23	=23	=23	=23	=23	=23
!LO:PB:g=original	!	!LO:PB:g=original	!	!LO:PB:g=original	!	!	!	!LO:TX:a:t=Solo	!	!	!	!	!	!	!	!	!	!	!LO:TX:a:t=P: zapis tt. 22-32 z użyciem repetycji i 2 volt:problem	!
*	*	*	*	*	*	*	*	*	*	*^	*	*	*	*	*	*	*	*	*	*
!	!	!	!	!	!	!	!	!	!	!	!	!	!	!	!	!	!LO:TX:t=P:forte zapisane jako "for":problem	!	!	!	!
!LO:TX:t=P:forte zapisane jako "for":problem	!LO:DY:b	!LO:TX:t=P:forte zapisane jako "for":problem	!LO:DY:b	!LO:TX:t=P:forte oznaczone jako "for":problem	!LO:DY:b	!LO:TX:t=P:forte zapisane jako for:problem	!LO:DY:b	!	!	!	!	!	!	!	!	!	!	!	!LO:DY:b	!LO:TX:t=P:forte zapisane jako "for":problem	!
4F\	f	4a\	f	4a\	f	4ff\	f	4F\	Niech	4c/	4A\	I-	.	4a\	Niech	.	4ff\	I-	f	4fff\	f
!	!LO:HP:b	!	!	!	!	!	!	!	!	!	!	!	!	!	!	!	!	!	!	!	!
4G\	<	4b-\	.	4b-\	.	4ee\	.	4G\	I-	4c/	4A\	-mie	.	4b-\	I-	.	4ee\	-mie	.	4eee\	.
4A\	.	4cc\	.	4cc\	.	4ee-X\	.	4A\	-mie	4c/	4A\	niech	.	4cc\	-mie	.	4ee-X\	niech	.	4eee-X\	.
=24	=24	=24	=24	=24	=24	=24	=24	=24	=24	=24	=24	=24	=24	=24	=24	=24	=24	=24	=24	=24	=24
!	!	!	!	!	!	!	!	!	!	!	!LO:PB:g=original	!	!	!	!	!	!	!	!	!	!
4B-\	.	4b-\	.	4b-/	.	4dd\	.	4B-\	wu-	4d/	4B-\	wu	.	4b-\	wu-	.	4dd\	wu-	.	4ddd\	.
4c\	.	4a\	.	4a/	.	4cc\	.	4c\	-szach	4r	4rCyy	.	.	4a\	-szach	.	4cc\	-szach	.	4ccc\	.
4d\	[	4g\	.	4g/	.	4b-\	.	4d\	ludz-	4r	4rCyy	.	.	4g\	ludz-	.	4b-\	ludz-	.	4bb-\	.
=25	=25	=25	=25	=25	=25	=25	=25	=25	=25	=25	=25	=25	=25	=25	=25	=25	=25	=25	=25	=25	=25
!	!	!	!	!	!	!	!	!LO:PB:g=original	!	!	!	!	!	!	!	!	!	!	!	!	!
!LO:TX:a:i:t=Basso	!	!	!	!	!	!	!	!	!	!	!	!	!	!	!	!	!	!	!	!	!
!LO:SIC:v=o:po słowie basso być może oznaczenie tryla lub czegoś podobnego	!	!	!	!	!	!	!	!	!	!	!	!	!	!	!	!	!	!	!	!	!
.	.	.	.	.	.	.	.	.	.	.	.	.	.	.	.	.	.	.	.	.	.
*tremolo	*	*	*	*tremolo	*	*	*	*	*	*	*	*	*	*	*	*	*	*	*	*	*
8C/L	[	8f\L	.	8f/L 8a/	.	8a/L	.	4c\	-kich	2.c/	2.A\	kich	.	2.f/	-kich	.	2.a/	-kich	.	2.aa\	.
8C/	.	8c\J	.	8f/ 8a/	.	8cc\	.	.	.	.	.	.	.	.	.	.	.	.	.	.	.
*	*	*tremolo	*	*	*	*	*	*	*	*	*	*	*	*	*	*	*	*	*	*	*
8C/	.	8c\L	.	8f/ 8a/	.	8ff\	.	4A\	.	.	.	.	.	.	.	.	.	.	.	.	.
8C/	.	8c\	.	8f/ 8a/	.	8cc\	.	.	.	.	.	.	.	.	.	.	.	.	.	.	.
8C/	.	8c\	.	8f/ 8a/	.	8aa\	.	4F\	.	.	.	.	.	.	.	.	.	.	.	.	.
8C/J	.	8c\J	.	8f/J 8a/	.	8ff\J	.	.	.	.	.	.	.	.	.	.	.	.	.	.	.
=26	=26	=26	=26	=26	=26	=26	=26	=26	=26	=26	=26	=26	=26	=26	=26	=26	=26	=26	=26	=26	=26
!	!LO:HP:b	!	!	!	!	!	!	!	!	!	!	!	!	!	!	!	!	!	!	!	!
8CC/L	>	8c\L	.	8G/L 8e/	.	2ccc\	.	4B-\	sły-	2.B-/	2.G\	sły-	.	2.e/	sły-	.	2.g/	sły-	.	2.gg\	.
8CC/	.	8c\	.	8G/ 8e/	.	.	.	.	.	.	.	.	.	.	.	.	.	.	.	.	.
8CC/	.	8c\	.	8G/ 8e/	.	.	.	4c\	.	.	.	.	.	.	.	.	.	.	.	.	.
8CC/	.	8c\	.	8G/ 8e/	.	.	.	.	.	.	.	.	.	.	.	.	.	.	.	.	.
8CC/	.	8c\	.	8G/ 8e/	.	4ee\	.	4C/	.	.	.	.	.	.	.	.	.	.	.	.	.
8CC/J	.	8c\J	.	8G/J 8e/	.	.	.	.	.	.	.	.	.	.	.	.	.	.	.	.	.
=27	=27	=27	=27	=27	=27	=27	=27	=27	=27	=27	=27	=27	=27	=27	=27	=27	=27	=27	=27	=27	=27
!	!	!	!	!	!	!	!	!	!	!	!	!	!	!	!	!	!LO:PB:g=original	!	!	!	!
!	!	!	!	!	!	!	!	!	!	!	!	!	!	!	!	!	!	!	!	!LO:TX:a:t=1.Vol.	!
4FF/	.	4c\	.	4A/ 4f/	.	4ff\	.	4F\	-nie	2c/	2A\	-nie	.	2c/	-nie	.	4f/	-nie	.	4ff\	.
4r	]	4r	.	4r	.	4r	.	4r	.	.	.	.	.	.	.	.	16g/LL	.	.	4r	.
.	.	.	.	.	.	.	.	.	.	.	.	.	.	.	.	.	(<16f/	.	.	.	.
.	.	.	.	.	.	.	.	.	.	.	.	.	.	.	.	.	16e/	.	.	.	.
.	.	.	.	.	.	.	.	.	.	.	.	.	.	.	.	.	16f/JJ	.	.	.	.
4r	.	4r	.	4r	.	4r	.	4r	.	4r	4ryy	.	.	4r	.	.	24gLL/	-nie	.	4r	.
.	.	.	.	.	.	.	.	.	.	.	.	.	.	.	.	.	24a/	.	.	.	.
.	.	.	.	.	.	.	.	.	.	.	.	.	.	.	.	.	24b-\	.	.	.	.
.	.	.	.	.	.	.	.	.	.	.	.	.	.	.	.	.	24cc\	.	.	.	.
.	.	.	.	.	.	.	.	.	.	.	.	.	.	.	.	.	24dd\	.	.	.	.
.	.	.	.	.	.	.	.	.	.	.	.	.	.	.	.	.	24ee\JJ)	.	.	.	.
=28	=28	=28	=28	=28	=28	=28	=28	=28	=28	=28	=28	=28	=28	=28	=28	=28	=28	=28	=28	=28	=28
!	!	!	!	!	!	!LO:PB:g=original	!	!	!	!	!	!	!	!	!	!	!	!	!	!	!
4F\	.	4a\	.	4a\	.	4ff\	.	4F\	Niech	4c/	4A\	I-	.	4a\	Niech	.	4ff\	I-	.	4fff\	f
!	!LO:HP:b	!	!	!	!	!	!	!	!	!	!	!	!	!	!	!	!	!	!	!	!
4G\	<	4b-\	.	4b-\	.	4ee\	.	4G\	I-	4c/	4A\	-mie	.	4b-\	I-	.	4ee\	-mie	.	4eee\	.
4A\	.	4cc\	.	4cc\	.	4ee-X\	.	4A\	-mie	4c/	4A\	niech	.	4cc\	-mie	.	4ee-X\	niech	.	4eee-X\	.
=29	=29	=29	=29	=29	=29	=29	=29	=29	=29	=29	=29	=29	=29	=29	=29	=29	=29	=29	=29	=29	=29
!	!	!	!	!	!	!	!	!	!	!	!	!	!	!LO:PB:g=original	!	!	!	!	!	!	!
4B-\	.	4b-\	.	4b-\	.	4dd\	.	4B-\	wu-	4d/	4B-\	wu	.	4b-\	wu-	.	4dd\	wu-	.	4ddd\	.
4c\	.	4a\	.	4a\	.	4cc\	.	4c\	-szach	4r	4ryy	.	.	4a\	-szach	.	4cc\	-szach	.	4ccc\	.
4d\	[[	4g\	.	4g\	.	4b-\	.	4d\	ludz-	4r	4ryy	.	.	4g/	ludz-	.	4b-\	ludz-	.	4bb-\	.
=30	=30	=30	=30	=30	=30	=30	=30	=30	=30	=30	=30	=30	=30	=30	=30	=30	=30	=30	=30	=30	=30
*tremolo	*	*	*	*	*	*	*	*	*	*	*	*	*	*	*	*	*	*	*	*	*
8C/L	[	8f\L	.	8f/L 8a/	.	8a/L	.	4c\	-kich	2.c/	2.A\	kich	.	2.f/	-kich	.	2.a/	-kich	.	2.aa\	.
8C/	.	8c\J	.	8f/ 8a/	.	8cc\	.	.	.	.	.	.	.	.	.	.	.	.	.	.	.
8C/	.	8c\L	.	8f/ 8a/	.	8ff\	.	4A\	.	.	.	.	.	.	.	.	.	.	.	.	.
8C/	.	8c\	.	8f/ 8a/	.	8cc\	.	.	.	.	.	.	.	.	.	.	.	.	.	.	.
8C/	.	8c\	.	8f/ 8a/	.	8aa\	.	4F\	.	.	.	.	.	.	.	.	.	.	.	.	.
8C/J	.	8c\J	.	8f/J 8a/	.	8ff\J	.	.	.	.	.	.	.	.	.	.	.	.	.	.	.
=31	=31	=31	=31	=31	=31	=31	=31	=31	=31	=31	=31	=31	=31	=31	=31	=31	=31	=31	=31	=31	=31
8CC/L	.	8c\L	.	8G/L 8e/	.	2ccc\	.	4B-\	sły-	2.B-/	2.G\	sły-	.	2.e/	sły-	.	2.g/	sły-	.	2.gg\	.
8CC/	.	8c\J	.	8G/ 8e/	.	.	.	.	.	.	.	.	.	.	.	.	.	.	.	.	.
8CC/	.	8c\L	.	8G/ 8e/	.	.	.	4c\	.	.	.	.	.	.	.	.	.	.	.	.	.
8CC/	.	8c\J	.	8G/ 8e/	.	.	.	.	.	.	.	.	.	.	.	.	.	.	.	.	.
8CC/	.	8c\L	.	8G/ 8e/	.	4ee\	.	4C/	.	.	.	.	.	.	.	.	.	.	.	.	.
8CC/J	.	8c\J	.	8G/J 8e/	.	.	.	.	.	.	.	.	.	.	.	.	.	.	.	.	.
=32	=32	=32	=32	=32	=32	=32	=32	=32	=32	=32	=32	=32	=32	=32	=32	=32	=32	=32	=32	=32	=32
!LO:PB:g=original	!	!	!	!	!	!	!	!	!	!	!	!	!	!	!	!	!	!	!	!LO:TX:a:t=2. Vol	!
.	.	.	.	.	.	.	.	.	.	.	.	.	.	.	.	.	.	.	.	.	.
*	*	*	*	*	*	*	*	*	*	*	*	*	*	*	*	*	*	*	*	*^	*
4FF/	.	2c\	.	2A/ 2f/	.	2ff\	.	2F\	-nie	2c/	2A\	-nie	.	2c/	-nie	.	2f/	-nie	.	2ff/	2ff\	.
!LO:TX:a:t=Zello	!	!	!	!	!	!	!	!	!	!	!	!	!	!	!	!	!	!	!	!	!	!
8FF/L	.	.	.	.	.	.	.	.	.	.	.	.	.	.	.	.	.	.	.	.	.	.
!LO:TX:t=P:mixed beam:problem	!LO:DY:b	!	!	!	!	!	!	!	!	!	!	!	!	!	!	!	!	!	!	!	!	!
8F\	p	.	.	.	.	.	.	.	.	.	.	.	.	.	.	.	.	.	.	.	.	.
8F\	.	4r	.	4r	.	4r	.	4r	.	4r	4ryy	.	.	4r	.	.	4r	.	.	4ff/	4cc\	.
!LO:TX:b:t=dol.	!	!	!	!	!	!	!	!	!	!	!	!	!	!	!	!	!	!	!	!	!	!
8F\J	.	.	.	.	.	.	.	.	.	.	.	.	.	.	.	.	.	.	.	.	.	.
*	*	*	*	*	*	*	*	*	*	*v	*v	*	*	*	*	*	*	*	*	*v	*v	*
=33	=33	=33	=33	=33	=33	=33	=33	=33	=33	=33	=33	=33	=33	=33	=33	=33	=33	=33	=33	=33
!	!	!	!	!LO:PB:g=original	!	!	!	!LO:PB:g=original	!	!	!	!	!	!	!	!	!	!	!	!
!	!	!	!	!	!	!	!	!	!	!	!	!	!	!	!	!	!	!	!LO:TX:b:t=dol	!
!	!	!	!LO:DY:b	!	!LO:DY:b	!	!	!	!	!	!	!	!	!	!	!	!	!	!LO:TX:a:t=Solo	!
!	!	!	!	!	!	!	!	!	!	!	!	!	!	!	!	!	!	!	!LO:PB:g=original	!
4.C\	.	4.G/	p	4.e/	p	4.cc\	p	2.r	.	2.r	.	.	2.r	.	.	2.r	.	.	(>8.cc\L	p
.	.	.	.	.	.	.	.	.	.	.	.	.	.	.	.	.	.	.	16bb-\Jk)	.
.	.	.	.	.	.	.	.	.	.	.	.	.	.	.	.	.	.	.	4gg\	.
*	*	*Xtremolo	*	*Xtremolo	*	*	*	*	*	*	*	*	*	*	*	*	*	*	*	*
8C/L	.	8G/L	.	8e/L	.	8cc\L	.	.	.	.	.	.	.	.	.	.	.	.	.	.
8E\	.	8G/	.	8e/	.	8cc\	.	.	.	.	.	.	.	.	.	.	.	.	4r	.
8G\J	.	8G/J	.	8e/J	.	8cc\J	.	.	.	.	.	.	.	.	.	.	.	.	.	.
=34	=34	=34	=34	=34	=34	=34	=34	=34	=34	=34	=34	=34	=34	=34	=34	=34	=34	=34	=34	=34
4.F\	.	4.A/	.	4.f/	.	4.cc\	.	2.r	.	2.r	.	.	2.r	.	.	2.r	.	.	(>8.cc\L	.
.	.	.	.	.	.	.	.	.	.	.	.	.	.	.	.	.	.	.	16aa\Jk)	.
.	.	.	.	.	.	.	.	.	.	.	.	.	.	.	.	.	.	.	4ff\	.
8F\L	.	8A/L	.	8f/L	.	8cc\L	.	.	.	.	.	.	.	.	.	.	.	.	.	.
8A\	.	8A/	.	8f/	.	8cc\	.	.	.	.	.	.	.	.	.	.	.	.	8r	.
8c\J	.	8A/J	.	8f/J	.	8cc\J	.	.	.	.	.	.	.	.	.	.	.	.	8fff\	.
=35	=35	=35	=35	=35	=35	=35	=35	=35	=35	=35	=35	=35	=35	=35	=35	=35	=35	=35	=35	=35
!	!	!	!	!	!	!LO:PB:g=original	!	!	!	!	!	!	!	!	!	!	!	!	!	!
2.C/	.	2c\	.	2g/	.	2b-\	.	2.r	.	2.r	.	.	2.r	.	.	2.r	.	.	(>8eee\L	.
.	.	.	.	.	.	.	.	.	.	.	.	.	.	.	.	.	.	.	8ddd\	.
.	.	.	.	.	.	.	.	.	.	.	.	.	.	.	.	.	.	.	8ccc\	.
.	.	.	.	.	.	.	.	.	.	.	.	.	.	.	.	.	.	.	8bb-\)	.
.	.	4c\	.	4g/	.	4b-\	.	.	.	.	.	.	.	.	.	.	.	.	(>8gg\	<
.	.	.	.	.	.	.	.	.	.	.	.	.	.	.	.	.	.	.	8gg#X\J)	[
=36	=36	=36	=36	=36	=36	=36	=36	=36	=36	=36	=36	=36	=36	=36	=36	=36	=36	=36	=36	=36
4F\	.	4c\	.	4.f/	.	4.a/	.	2.r	.	2.r	.	.	2.r	.	.	2.r	.	.	4aa\	>
8r	.	4r	.	.	.	.	.	.	.	.	.	.	.	.	.	.	.	.	4r	]
8F\L	.	.	.	8f/L	.	8a/L	.	.	.	.	.	.	.	.	.	.	.	.	.	.
8A\	.	4r	.	8f/	.	8a/	.	.	.	.	.	.	.	.	.	.	.	.	8r	.
8c\J	.	.	.	8f/J	.	8a/J	.	.	.	.	.	.	.	.	.	.	.	.	8cc\T	.
=37	=37	=37	=37	=37	=37	=37	=37	=37	=37	=37	=37	=37	=37	=37	=37	=37	=37	=37	=37	=37
4.C\	.	4.c\	.	4.e/	.	4.g/	.	2.r	.	2.r	.	.	2.r	.	.	2.r	.	.	(>8.cc\L	.
.	.	.	.	.	.	.	.	.	.	.	.	.	.	.	.	.	.	.	16bb-\Jk)	.
.	.	.	.	.	.	.	.	.	.	.	.	.	.	.	.	.	.	.	4gg\	.
8C/L	.	8c\L	.	8e/L	.	8g/L	.	.	.	.	.	.	.	.	.	.	.	.	.	.
8E\	.	8c\	.	8e/	.	8g/	.	.	.	.	.	.	.	.	.	.	.	.	8r	.
8G\J	.	8c\J	.	8e/J	.	8g/J	.	.	.	.	.	.	.	.	.	.	.	.	8cc\T	.
=38	=38	=38	=38	=38	=38	=38	=38	=38	=38	=38	=38	=38	=38	=38	=38	=38	=38	=38	=38	=38
!	!	!	!	!	!	!	!	!	!	!	!	!	!	!	!	!	!	!	!LO:PB:g=original	!
4.F\	.	4.c\	.	4.f/	.	4.a/	.	2.r	.	2.r	.	.	2.r	.	.	2.r	.	.	(>8.cc\L	.
.	.	.	.	.	.	.	.	.	.	.	.	.	.	.	.	.	.	.	16aa\Jk)	.
.	.	.	.	.	.	.	.	.	.	.	.	.	.	.	.	.	.	.	4ff\	.
8A\L	.	8c\L	.	8f/L	.	8a/L	.	.	.	.	.	.	.	.	.	.	.	.	.	.
8c\	.	8c\	.	8f/	.	8a/	.	.	.	.	.	.	.	.	.	.	.	.	8r	.
8f\J	.	8c\J	.	8f/J	.	8a/J	.	.	.	.	.	.	.	.	.	.	.	.	8fff\	.
=39	=39	=39	=39	=39	=39	=39	=39	=39	=39	=39	=39	=39	=39	=39	=39	=39	=39	=39	=39	=39
!Lo;PB:g=original	!	!LO:PB:g=original	!	!	!	!	!	!	!	!	!	!	!	!	!	!	!	!	!	!
2e\	.	4c\	.	4e/	.	2b-\	.	2.r	.	2.r	.	.	2.r	.	.	2.r	.	.	(>8eee\L	.
.	.	.	.	.	.	.	.	.	.	.	.	.	.	.	.	.	.	.	8ddd\	>
.	.	4r	.	4r	.	.	.	.	.	.	.	.	.	.	.	.	.	.	8ccc\	.
.	.	.	.	.	.	.	.	.	.	.	.	.	.	.	.	.	.	.	8bb-\	.
4r	.	4r	.	4r	.	4r	.	.	.	.	.	.	.	.	.	.	.	.	8aa\	.
.	.	.	.	.	.	.	.	.	.	.	.	.	.	.	.	.	.	.	8gg\J)	]]
=40	=40	=40	=40	=40	=40	=40	=40	=40	=40	=40	=40	=40	=40	=40	=40	=40	=40	=40	=40	=40
*	*	*	*	*	*	*tremolo	*	*	*	*	*	*	*	*	*	*	*	*	*	*
!	!	!	!	!	!	!	!LO:HP:b	!	!	!	!	!	!	!	!	!	!	!	!	!
*	*	*tremolo	*	*tremolo	*	*	*	*	*	*	*	*	*	*	*	*	*	*	*	*
8B-\L	.	8c\L	.	8f/L	.	8a/L	<	2.r	.	2.r	.	.	2.r	.	.	2.r	.	.	2ff\T	<
8G\	.	8c\	.	8f/	.	8a/	.	.	.	.	.	.	.	.	.	.	.	.	.	.
8E\	.	8c\	.	8f/	.	8a/	.	.	.	.	.	.	.	.	.	.	.	.	.	.
8C/J	.	8c\	.	8f/J	.	8a/J	.	.	.	.	.	.	.	.	.	.	.	.	.	.
*	*	*	*	*	*	*Xtremolo	*	*	*	*	*	*	*	*	*	*	*	*	*	*
*	*	*	*	*Xtremolo	*	*	*	*	*	*	*	*	*	*	*	*	*	*	*	*
8c\L	.	8c\	.	8e/L	.	8g/L	.	.	.	.	.	.	.	.	.	.	.	.	8.ee\tL	[
!LO:TX:t=P:mixed beam:problem	!	!	!	!	!	!	!	!	!	!	!	!	!	!	!	!	!	!	!	!
8C/J	.	8c\J	.	8e/J	.	8g/J	[[	.	.	.	.	.	.	.	.	.	.	.	.	.
.	.	.	.	.	.	.	.	.	.	.	.	.	.	.	.	.	.	.	(>32dd\LL	.
.	.	.	.	.	.	.	.	.	.	.	.	.	.	.	.	.	.	.	32ee\JJJ)	.
=41	=41	=41	=41	=41	=41	=41	=41	=41	=41	=41	=41	=41	=41	=41	=41	=41	=41	=41	=41	=41
!LO:TX:b:t=ritar	!	!LO:TX:b:t=ritar	!	!LO:TX:b:t=ritar	!	!LO:TX:b:t=Ritar	!	!	!	!	!	!	!	!	!	!	!	!	!LO:TX:b:t=ritar	!
4F\	.	4A/	.	4c/	.	4f/	[	2.r	.	2.r	.	.	2.r	.	.	2.r	.	.	(>12ff\L	.
.	.	.	.	.	.	.	.	.	.	.	.	.	.	.	.	.	.	.	12ccc\)	.
.	.	.	.	.	.	.	.	.	.	.	.	.	.	.	.	.	.	.	(>12aa\'J	.
!	!	!	!	!	!	!	!	!	!	!	!	!	!	!	!	!	!	!	!LO:TX:b:i:t=dimi	!
!	!	!	!	!	!	!	!	!	!	!	!	!	!	!	!	!	!	!	!LO:TX:a:t=P: niewyraźnie zapisany tekst: dimi? (diminuendo):problem	!
4r	.	4r	.	4r	.	4r	.	.	.	.	.	.	.	.	.	.	.	.	12ff\'L	.
!	!	!	!	!	!	!	!	!	!	!	!	!	!	!	!	!	!	!	!LO:TX:a:t=P: przyporządkowanie staccato, być może kropka staccata odnosi się do następnej nuty:problem	!
.	.	.	.	.	.	.	.	.	.	.	.	.	.	.	.	.	.	.	12cc\'	.
.	.	.	.	.	.	.	.	.	.	.	.	.	.	.	.	.	.	.	12aa\J	.
4r	.	4r	.	4r	.	4r	.	.	.	.	.	.	.	.	.	.	.	.	12ff\'L	.
.	.	.	.	.	.	.	.	.	.	.	.	.	.	.	.	.	.	.	12cc\'	.
.	.	.	.	.	.	.	.	.	.	.	.	.	.	.	.	.	.	.	12a/'J)	.
=42	=42	=42	=42	=42	=42	=42	=42	=42	=42	=42	=42	=42	=42	=42	=42	=42	=42	=42	=42	=42
!	!	!	!	!	!	!LO:PB:g=original	!	!	!	!	!	!	!	!	!	!	!	!	!LO:PB:g=original	!
4r	.	4r	.	4r	.	4r	.	2.r	.	2.r	.	.	2.r	.	.	2.r	.	.	4f/	.
4r	.	4r	.	4r	.	4r	.	.	.	.	.	.	.	.	.	.	.	.	4r	.
!	!	!	!	!	!	!	!	!	!	!	!	!	!	!	!	!	!	!	!LO:TX:t=P:forte zapisane jako"for":problem	!
4F\	.	4A/	.	4c/	.	4a\ 4ff\	.	.	.	.	.	.	.	.	.	.	.	.	4fff\	f
=43	=43	=43	=43	=43	=43	=43	=43	=43	=43	=43	=43	=43	=43	=43	=43	=43	=43	=43	=43	=43
2FF/	.	2A/	.	2c/	.	2f/	.	2.r	.	2.r	.	.	2.r	.	.	2.r	.	.	2f/	.
4r	.	4r	.	4r	.	4r	.	.	.	.	.	.	.	.	.	.	.	.	4r	.
==	==	==	==	==	==	==	==	==	==	==	==	==	==	==	==	==	==	==	==	==
*-	*-	*-	*-	*-	*-	*-	*-	*-	*-	*-	*-	*-	*-	*-	*-	*-	*-	*-	*-	*-
!!!system-decoration: s1,s2,s3,s4,s5,s6,s7,s8,s9
!!!RDF**kern: > = above
!!!RDF**kern: < = below
!!!AIN: 1 alto 1 cello 1 empty 1 flt 1 soprn 1 tenor 1 viola 2 violn
!!!ENC: Krzysztof Stępień
!!!END: 2020-02-07
!!!ENC: Leszek Kubiak
!!!END: 2020-03-02
